images/search.svg

<svg width="36" height="36" viewBox="0 0 36 36" fill="none" xmlns="http://www.w3.org/2000/svg">
<path d="M23.25 21L22.065 21L21.645 20.595C23.115 18.885 24 16.665 24 14.25C24 8.865 19.635 4.5 14.25 4.5C8.865 4.5 4.5 8.865 4.5 14.25C4.5 19.635 8.865 24 14.25 24C16.665 24 18.885 23.115 20.595 21.645L21 22.065L21 23.25L28.5 30.735L30.735 28.5L23.25 21V21ZM14.25 21C10.515 21 7.5 17.985 7.5 14.25C7.5 10.515 10.515 7.5 14.25 7.5C17.985 7.5 21 10.515 21 14.25C21 17.985 17.985 21 14.25 21Z" fill="#314868"/>
</svg>

<?xml version="1.0" encoding="UTF-8"?><svg id="_圖層_1" xmlns="http://www.w3.org/2000/svg" viewBox="0 0 36 36"><defs><style>.cls-1{fill:#314868;}</style></defs><path class="cls-1" d="m23.25,21h-1.18l-.42-.41c1.47-1.71,2.35-3.93,2.35-6.34,0-5.39-4.36-9.75-9.75-9.75S4.5,8.86,4.5,14.25s4.36,9.75,9.75,9.75c2.42,0,4.64-.89,6.34-2.35l.41.42v1.18l7.5,7.49,2.24-2.24-7.49-7.5h0Zm-9,0c-3.73,0-6.75-3.01-6.75-6.75s3.02-6.75,6.75-6.75,6.75,3.02,6.75,6.75-3.01,6.75-6.75,6.75Z"/></svg>
